X:114
T:Scattery Island
R:slide
H:See also #21
D:Dennis Doody
Z:id:hn-slide-114
M:6/8
L:1/8
K:D
F2A d2f | F2A d2f | e2A cBA | e2A cBA |
F2A d2f | F2A d2f | e2A cBA |1 f2e d2A :|2 f2e d2f ||
|: a2d f2e | d3 def | g2f e2d | Bcd efg |
a2d f2e | d3 def | ged cBA |1 f2e d2f :|2 f2e d2A ||

